dist/img/svg/media__item__logo--5.svg

<svg width="278" height="100" viewBox="0 0 278 100" fill="none" xmlns="http://www.w3.org/2000/svg">
<g clip-path="url(#clip0_7147_14332)">
<path d="M32.0223 0H5.978C2.70343 0 0 2.7034 0 5.97795V32.022C0 35.2966 2.70343 38 5.978 38H32.0223C35.2969 38 38.0003 35.2966 38.0003 32.022V5.97795C38.0003 2.7034 35.3349 0 32.0223 0ZM28.4431 8.87174H12.7937V16.8677H28.4431V19.9519H12.7937V29.0902H28.4431V32.2124H9.55719V5.78757H28.4431V8.87174Z" fill="#2A2A2A"/>
<path d="M164.107 16.9823C164.335 16.1446 164.64 15.3831 165.097 14.7358C165.554 14.0885 166.049 13.5174 166.62 13.0604C167.191 12.6035 167.838 12.2608 168.486 11.9943C169.171 11.7659 169.818 11.6135 170.504 11.6135C171.456 11.6135 172.369 11.842 173.245 12.2989C174.083 12.7558 174.844 13.365 175.492 14.1646C176.139 14.9642 176.558 15.9161 176.863 16.9823H164.107ZM186.915 24.9402H183.107V28.862H186.915V24.9402ZM199.975 8.75784C199.213 8.68169 198.452 8.71976 197.652 8.87206C196.853 9.02437 196.091 9.32897 195.406 9.74781C194.682 10.1666 194.073 10.7378 193.578 11.4232V9.21474H190.456V28.824H193.692V17.4773C193.692 16.4873 193.883 15.6496 194.187 14.9262C194.53 14.2027 194.987 13.6316 195.558 13.1747C196.129 12.7177 196.815 12.3751 197.576 12.1847C198.338 11.9943 199.137 11.9182 199.975 11.9562V8.75784ZM219.318 9.21474H216.081V21.2468C216.081 22.2368 215.853 23.1125 215.396 23.8741C214.939 24.6356 214.33 25.2448 213.568 25.6636C212.807 26.1206 211.931 26.349 210.941 26.349C209.913 26.349 208.999 26.1206 208.314 25.7017C207.59 25.2829 207.057 24.6737 206.676 23.9121C206.296 23.1506 206.105 22.2368 206.105 21.1707V9.21474H202.907V21.0184C202.907 22.2368 203.097 23.341 203.402 24.3691C203.744 25.3971 204.239 26.2348 204.887 26.9963C205.534 27.7198 206.334 28.2909 207.248 28.7097C208.199 29.1286 209.266 29.319 210.446 29.319C211.664 29.319 212.731 29.0905 213.721 28.6336C214.672 28.1767 215.51 27.5294 216.195 26.7298V28.862H219.318V9.21474ZM176.52 22.7318C175.987 23.8741 175.225 24.7879 174.235 25.3971C173.245 26.0063 172.065 26.349 170.694 26.349C169.895 26.349 169.095 26.1967 168.333 25.9302C167.572 25.6256 166.886 25.2067 166.239 24.6737C165.63 24.1025 165.097 23.4172 164.678 22.6176C164.259 21.818 163.993 20.9041 163.878 19.8761H180.366C180.366 18.4673 180.175 17.2107 179.832 16.0304C179.49 14.85 178.995 13.822 178.347 12.9462C177.7 12.0324 176.977 11.2709 176.139 10.6616C175.301 10.0524 174.388 9.55743 173.436 9.21474C172.484 8.91014 171.494 8.71976 170.466 8.71976C169.095 8.71976 167.8 8.98629 166.62 9.51936C165.44 10.0524 164.373 10.8139 163.498 11.7278C162.584 12.6797 161.898 13.7839 161.365 15.0023C160.87 16.2588 160.604 17.5915 160.604 19.0003C160.604 20.4472 160.87 21.7799 161.403 23.0364C161.898 24.2929 162.622 25.359 163.536 26.3109C164.45 27.2248 165.516 27.9482 166.734 28.4813C167.953 29.0143 169.285 29.2809 170.694 29.2809C172.217 29.2809 173.588 29.0144 174.806 28.5194C176.025 28.0244 177.091 27.2628 177.967 26.3109C178.842 25.321 179.49 24.1406 179.985 22.7318H176.52ZM160.261 9.21474H156.834L151.427 24.826L145.983 9.21474H142.556L149.676 28.824H153.141L160.261 9.21474ZM139.319 9.21474H136.083V28.824H139.319V9.21474ZM132.96 25.854C132.351 25.8921 131.78 25.854 131.247 25.7398C130.714 25.6256 130.219 25.3971 129.8 25.0925C129.381 24.7879 129.039 24.331 128.81 23.7598C128.582 23.1887 128.429 22.5033 128.429 21.6276V12.2989H132.884V9.21474H128.429V5.02637H125.231V9.21474H122.566V12.2989H125.231V21.6276C125.231 22.8841 125.421 23.9883 125.802 24.9402C126.183 25.8921 126.716 26.6536 127.401 27.3009C128.087 27.9101 128.886 28.3671 129.838 28.6336C130.79 28.9001 131.818 28.9763 132.96 28.824V25.854ZM119.71 9.21474H116.473V21.2468C116.473 22.2368 116.245 23.1125 115.788 23.8741C115.331 24.6356 114.722 25.2448 113.96 25.6636C113.199 26.0825 112.323 26.349 111.333 26.349C110.305 26.349 109.391 26.1206 108.706 25.7017C107.982 25.2829 107.449 24.6737 107.068 23.9121C106.688 23.1506 106.497 22.2368 106.497 21.1707V9.21474H103.299V21.0184C103.299 22.2368 103.489 23.341 103.794 24.3691C104.137 25.359 104.632 26.2348 105.279 26.9963C105.926 27.7198 106.726 28.2909 107.64 28.7097C108.591 29.1286 109.658 29.319 110.838 29.319C112.056 29.319 113.123 29.0905 114.113 28.6336C115.064 28.1767 115.902 27.5294 116.588 26.7298V28.862H119.71V9.21474ZM100.062 22.7318H96.5974C96.2547 23.4552 95.7978 24.0644 95.2266 24.5975C94.6555 25.1306 94.0463 25.5113 93.3228 25.7779C92.5994 26.0444 91.7998 26.1967 90.924 26.1967C90.0102 26.1967 89.1725 26.0063 88.3729 25.6256C87.5733 25.2448 86.8879 24.7498 86.2787 24.1025C85.6695 23.4552 85.2125 22.6937 84.8699 21.818C84.5272 20.9422 84.3368 20.0284 84.3368 19.0384C84.3368 18.0484 84.5272 17.0965 84.8699 16.2208C85.2125 15.345 85.6695 14.5835 86.2787 13.8981C86.8879 13.2127 87.5733 12.7178 88.3729 12.337C89.1725 11.9562 90.0102 11.7659 90.924 11.7659C91.7617 11.7659 92.5613 11.9182 93.2847 12.1847C94.0082 12.4512 94.6555 12.8701 95.1886 13.365C95.7597 13.8981 96.2166 14.5073 96.5974 15.2308H100.062C99.6054 13.8981 98.9581 12.7558 98.0824 11.7659C97.2066 10.7759 96.1405 10.0143 94.9601 9.48128C93.7417 8.94822 92.409 8.68168 90.924 8.68168C89.5533 8.68168 88.2967 8.94822 87.1164 9.48128C85.936 10.0143 84.8699 10.7759 83.9941 11.6897C83.0803 12.6416 82.3949 13.7458 81.8618 14.9642C81.3668 16.2208 81.1003 17.5534 81.1003 18.9622C81.1003 20.4091 81.3668 21.7418 81.8618 22.9602C82.3568 24.2168 83.0803 25.2829 83.9941 26.2348C84.9079 27.1867 85.936 27.9101 87.1164 28.4432C88.2967 28.9763 89.5913 29.2428 90.924 29.2428C92.409 29.2428 93.7417 28.9763 94.9601 28.4432C96.1786 27.9101 97.2066 27.1486 98.0824 26.1586C98.9581 25.2448 99.6054 24.0644 100.062 22.7318ZM62.2905 16.9823C62.519 16.1446 62.8236 15.3831 63.2805 14.7358C63.7374 14.0885 64.2324 13.5174 64.8036 13.0604C65.3747 12.6035 66.022 12.2608 66.6693 11.9943C67.3547 11.7659 68.002 11.6135 68.6874 11.6135C69.6393 11.6135 70.5531 11.842 71.4289 12.2989C72.2666 12.7558 73.0281 13.365 73.6754 14.1646C74.2846 14.9642 74.7415 15.9161 75.0461 16.9823H62.2905ZM74.7034 22.7318C74.1704 23.8741 73.4088 24.7879 72.4189 25.3971C71.4289 26.0063 70.2485 26.349 68.8778 26.349C68.0781 26.349 67.2785 26.1967 66.517 25.9302C65.7555 25.6256 65.0701 25.2067 64.4228 24.6737C63.7755 24.1025 63.2805 23.4172 62.8617 22.6176C62.4428 21.818 62.1763 20.9041 62.0621 19.8761H78.5492C78.5492 18.4673 78.3588 17.2107 78.0161 16.0304C77.6734 14.85 77.1784 13.822 76.5311 12.9462C75.8838 12.0324 75.1604 11.2709 74.3227 10.6616C73.485 10.0524 72.5712 9.55743 71.6193 9.21474C70.6673 8.91014 69.6774 8.71976 68.6493 8.71976C67.2785 8.71976 65.9839 8.98629 64.8036 9.51936C63.6232 10.0524 62.5571 10.8139 61.6813 11.7278C60.8055 12.6416 60.0821 13.7839 59.549 15.0023C59.054 16.2588 58.7875 17.5915 58.7875 19.0003C58.7875 20.4472 59.054 21.7799 59.5871 23.0364C60.0821 24.2929 60.8055 25.359 61.7194 26.3109C62.6332 27.2248 63.6994 27.9482 64.9178 28.4813C66.1362 29.0143 67.4689 29.2809 68.8778 29.2809C70.4008 29.2809 71.7716 29.0144 72.99 28.5194C74.2085 28.0244 75.2746 27.2628 76.1503 26.3109C77.0261 25.321 77.6734 24.1406 78.1684 22.7318H74.7034ZM54.7895 28.824H58.7494L51.7053 18.6957L58.2925 9.21474H54.3326L49.7634 16.2208L45.1942 9.21474H41.2343L47.7834 18.6957L40.7773 28.824H44.7373L49.7634 21.1707L54.7895 28.824Z" fill="#2A2A2A"/>
<path d="M139.322 2.39844H136.086V6.24413H139.322V2.39844Z" fill="#2A2A2A"/>
</g>
<defs>
<clipPath id="clip0_7147_14332">
<rect width="219.319" height="38" fill="white"/>
</clipPath>
</defs>
</svg>

<svg width="278" height="100" viewBox="0 0 278 100" fill="none" xmlns="http://www.w3.org/2000/svg"><g clip-path="url(#clip0_7147_14332)" fill="#2A2A2A"><path d="M32.022 0H5.978C2.703 0 0 2.703 0 5.978v26.044C0 35.297 2.703 38 5.978 38h26.044C35.297 38 38 35.297 38 32.022V5.978C38 2.703 35.335 0 32.022 0zm-3.579 8.872h-15.65v7.996h15.65v3.084h-15.65v9.138h15.65v3.122H9.557V5.788h18.886v3.084zm135.664 8.11c.228-.837.533-1.599.99-2.246.457-.648.952-1.219 1.523-1.676.571-.457 1.218-.8 1.866-1.066.685-.228 1.332-.38 2.018-.38a5.85 5.85 0 012.741.685 7.454 7.454 0 012.247 1.866c.647.8 1.066 1.751 1.371 2.817h-12.756zm22.808 7.958h-3.808v3.922h3.808V24.94zm13.06-16.182a8.008 8.008 0 00-2.323.114 6.74 6.74 0 00-2.246.876 5.9 5.9 0 00-1.828 1.675V9.215h-3.122v19.609h3.236V17.477c0-.99.191-1.827.495-2.55.343-.724.8-1.295 1.371-1.752a5.273 5.273 0 012.018-.99 8.294 8.294 0 012.399-.229V8.758zm19.343.457h-3.237v12.032c0 .99-.228 1.866-.685 2.627a4.852 4.852 0 01-1.828 1.79c-.761.457-1.637.685-2.627.685-1.028 0-1.942-.228-2.627-.647-.724-.42-1.257-1.028-1.638-1.79-.38-.761-.571-1.675-.571-2.741V9.215h-3.198v11.803c0 1.219.19 2.323.495 3.351a7.708 7.708 0 001.485 2.627 7.107 7.107 0 002.361 1.714c.951.419 2.018.609 3.198.609 1.218 0 2.285-.229 3.275-.685a7.57 7.57 0 002.474-1.904v2.132h3.123V9.215zM176.52 22.732c-.533 1.142-1.295 2.056-2.285 2.665-.99.61-2.17.952-3.541.952a7.179 7.179 0 01-2.361-.419 7.858 7.858 0 01-2.094-1.256 7.726 7.726 0 01-1.561-2.056c-.419-.8-.685-1.714-.8-2.742h16.488c0-1.409-.191-2.665-.534-3.846-.342-1.18-.837-2.208-1.485-3.084-.647-.914-1.37-1.675-2.208-2.284a10.904 10.904 0 00-2.703-1.447c-.952-.305-1.942-.495-2.97-.495-1.371 0-2.666.266-3.846.8a10.1 10.1 0 00-3.122 2.208c-.914.952-1.6 2.056-2.133 3.274a10.821 10.821 0 00-.761 3.998c0 1.447.266 2.78.799 4.036.495 1.257 1.219 2.323 2.133 3.275a10.34 10.34 0 003.198 2.17c1.219.533 2.551.8 3.96.8 1.523 0 2.894-.267 4.112-.762a8.787 8.787 0 003.161-2.208c.875-.99 1.523-2.17 2.018-3.58h-3.465zM160.261 9.215h-3.427l-5.407 15.611-5.444-15.611h-3.427l7.12 19.609h3.465l7.12-19.61zm-20.942 0h-3.236v19.609h3.236V9.214zm-6.359 16.639c-.609.038-1.18 0-1.713-.114a3.842 3.842 0 01-1.447-.647c-.419-.305-.761-.762-.99-1.333-.228-.571-.381-1.257-.381-2.132v-9.33h4.455V9.216h-4.455v-4.19h-3.198v4.189h-2.665v3.084h2.665v9.329c0 1.256.19 2.36.571 3.312a6.49 6.49 0 001.599 2.36 6.083 6.083 0 002.437 1.334c.952.266 1.98.342 3.122.19v-2.97zm-13.25-16.64h-3.237v12.033c0 .99-.228 1.866-.685 2.627a4.852 4.852 0 01-1.828 1.79 5.387 5.387 0 01-2.627.685c-1.028 0-1.942-.228-2.627-.647-.724-.42-1.257-1.028-1.638-1.79-.38-.761-.571-1.675-.571-2.741V9.215h-3.198v11.803c0 1.219.19 2.323.495 3.351.343.99.838 1.866 1.485 2.627a7.107 7.107 0 002.361 1.714c.951.419 2.018.609 3.198.609 1.218 0 2.285-.229 3.275-.685a7.583 7.583 0 002.475-1.904v2.132h3.122V9.215zm-19.648 13.518h-3.465a6.075 6.075 0 01-1.37 1.866 5.51 5.51 0 01-1.904 1.18 6.893 6.893 0 01-2.399.419 5.82 5.82 0 01-2.551-.571 6.886 6.886 0 01-2.094-1.524c-.61-.647-1.066-1.408-1.41-2.284a7.523 7.523 0 01-.532-2.78c0-.99.19-1.942.533-2.817a7.59 7.59 0 011.409-2.323 6.42 6.42 0 012.094-1.561 5.83 5.83 0 012.551-.571c.838 0 1.637.152 2.36.419a5.733 5.733 0 011.905 1.18 6.883 6.883 0 011.408 1.866h3.465c-.457-1.333-1.104-2.475-1.98-3.465A9.196 9.196 0 0094.96 9.48c-1.218-.533-2.551-.8-4.036-.8-1.37 0-2.627.267-3.808.8a10.107 10.107 0 00-3.122 2.209c-.914.952-1.6 2.056-2.132 3.274a10.822 10.822 0 00-.762 3.998c0 1.447.267 2.78.762 3.998.495 1.257 1.218 2.323 2.132 3.275a9.925 9.925 0 003.122 2.208c1.18.533 2.475.8 3.808.8 1.485 0 2.818-.267 4.036-.8a8.844 8.844 0 003.122-2.284c.876-.914 1.523-2.095 1.98-3.427zm-37.771-5.75c.228-.837.533-1.599.99-2.246.456-.648.951-1.219 1.523-1.676.57-.457 1.218-.8 1.865-1.066.686-.228 1.333-.38 2.018-.38.952 0 1.866.228 2.742.685a7.448 7.448 0 012.246 1.866c.61.8 1.067 1.751 1.371 2.817H62.29zm12.412 5.75c-.533 1.142-1.294 2.056-2.284 2.665-.99.61-2.17.952-3.541.952-.8 0-1.6-.152-2.361-.419a7.856 7.856 0 01-2.094-1.256c-.648-.572-1.142-1.257-1.561-2.056-.42-.8-.686-1.714-.8-2.742H78.55c0-1.409-.19-2.665-.533-3.846-.343-1.18-.838-2.208-1.485-3.084-.647-.914-1.37-1.675-2.208-2.284a10.903 10.903 0 00-2.704-1.447c-.952-.305-1.942-.495-2.97-.495-1.37 0-2.665.266-3.845.8a10.105 10.105 0 00-3.123 2.208c-.875.914-1.599 2.056-2.132 3.274A10.821 10.821 0 0058.788 19c0 1.447.266 2.78.8 4.036.494 1.257 1.218 2.323 2.131 3.275.914.914 1.98 1.637 3.199 2.17 1.218.533 2.55.8 3.96.8 1.523 0 2.894-.267 4.112-.762a8.787 8.787 0 003.16-2.208c.876-.99 1.523-2.17 2.018-3.58h-3.465zM54.79 28.824h3.96l-7.044-10.128 6.587-9.481h-3.96l-4.569 7.006-4.569-7.006h-3.96l6.55 9.48-7.007 10.129h3.96l5.026-7.653 5.026 7.653zm84.532-26.426h-3.236v3.846h3.236V2.398z"/></g><defs><clipPath id="clip0_7147_14332"><path fill="#fff" d="M0 0h219.319v38H0z"/></clipPath></defs></svg>
